X:0560
T:Bank's Dance.  for "As you like it"
M:6/8
L:1/8
Q:3/8=112
I: :: :: ::
N:c upbeat added at the start of the 3rd part to make things add up.
Z:Jack Campin * www.campin.me.uk * 2009
K:G
B/c/|dBG G2g|e2d d2c/B/|cec dBG|FAA A2
B/c/|dBG G2g|e2d d2e/f/|gbg afd|g3  g2::
g   |g2f efg|dec B2c   |dBg dBG|FAA A2
f   |g2f efg|dec B2c   |dBg dBG|A3  G2::
c   |BGd d2g|BGd d2g   |fdf g2b|afd d2
c   |BGd d2g|BGd d2g   |efg A2d|BGG G2:|

